docs/assets/notebar-icon.svg

<svg width="72" height="72" viewBox="0 0 72 72" fill="none" xmlns="http://www.w3.org/2000/svg">
<path fill-rule="evenodd" clip-rule="evenodd" d="M12 0C5.37258 0 0 5.37258 0 12V60C0 66.6274 5.37258 72 12 72H60C66.6274 72 72 66.6274 72 60V12C72 5.37258 66.6274 0 60 0H12ZM18 13.5C15.5147 13.5 13.5 15.5147 13.5 18C13.5 20.4853 15.5147 22.5 18 22.5H49.5C51.9853 22.5 54 20.4853 54 18C54 15.5147 51.9853 13.5 49.5 13.5H18ZM13.5 36C13.5 33.5147 15.5147 31.5 18 31.5H54C56.4853 31.5 58.5 33.5147 58.5 36C58.5 38.4853 56.4853 40.5 54 40.5H18C15.5147 40.5 13.5 38.4853 13.5 36ZM18 49.5C15.5147 49.5 13.5 51.5147 13.5 54C13.5 56.4853 15.5147 58.5 18 58.5H40.5C42.9853 58.5 45 56.4853 45 54C45 51.5147 42.9853 49.5 40.5 49.5H18Z" fill="url(#paint0_linear)"/>
<defs>
<linearGradient id="paint0_linear" x1="9.5" y1="7" x2="63.5" y2="72" gradientUnits="userSpaceOnUse">
<stop stop-color="#DE8BFD"/>
<stop offset="1" stop-color="#7F28EE"/>
</linearGradient>
</defs>
</svg>

<svg width="72" height="72" viewBox="0 0 72 72" fill="none" xmlns="http://www.w3.org/2000/svg"><path fill-rule="evenodd" clip-rule="evenodd" d="M12 0C5.373 0 0 5.373 0 12v48c0 6.627 5.373 12 12 12h48c6.627 0 12-5.373 12-12V12c0-6.627-5.373-12-12-12H12zm6 13.5a4.5 4.5 0 1 0 0 9h31.5a4.5 4.5 0 1 0 0-9H18zM13.5 36a4.5 4.5 0 0 1 4.5-4.5h36a4.5 4.5 0 1 1 0 9H18a4.5 4.5 0 0 1-4.5-4.5zM18 49.5a4.5 4.5 0 1 0 0 9h22.5a4.5 4.5 0 1 0 0-9H18z" fill="url(#a)"/><defs><linearGradient id="a" x1="9.5" y1="7" x2="63.5" y2="72" gradientUnits="userSpaceOnUse"><stop stop-color="#DE8BFD"/><stop offset="1" stop-color="#7F28EE"/></linearGradient></defs></svg>
